img/icon-eye-open.svg

<svg fill="none" height="24" viewBox="0 0 24 24" width="24" xmlns="http://www.w3.org/2000/svg"><g fill="#fff"><path d="m20.0105 8.10891 1.1747-1.92133c.288-.472.14-1.08667-.3307-1.37467-.472-.28666-1.0866-.14-1.3746.33067l-1.2094 1.976c-.904-.44133-1.8506-.784-2.832-1.02533l.444-2.20667c.1094-.54133-.2426-1.06933-.7826-1.17733-.54-.104-1.0694.24133-1.1774.78266l-.452 2.24667c-.4853-.04933-.976-.076-1.4706-.076-.4947 0-.9854.02667-1.4707.076l-.452-2.24667c-.10932-.54133-.63999-.888-1.17732-.78266-.54133.10933-.892.636-.78267 1.17733l.444 2.20667c-.98133.24133-1.928.584-2.832 1.02533l-1.20933-1.976c-.28667-.47067-.90267-.61733-1.37467-.33067-.47066.288-.61866.904-.33066 1.37467l1.17466 1.92133c-.792.536-1.53866 1.156-2.224 1.856-.38666.39329-.38 1.02799.01467 1.41469.39333.3866 1.02667.38 1.41467-.0147 2.33866-2.38532 5.46666-3.69865 8.80665-3.69865 3.34 0 6.468 1.31333 8.8067 3.69865.196.2.4546.3.7146.3.252 0 .5054-.0947.7-.2853.3947-.3867.4014-1.02.0147-1.41469-.6867-.7-1.432-1.32-2.224-1.856z"/><path d="m11.9999 18.6654c2.5773 0 4.6667-2.0894 4.6667-4.6667s-2.0894-4.66667-4.6667-4.66667c-2.57731 0-4.66665 2.08937-4.66665 4.66667s2.08934 4.6667 4.66665 4.6667z"/></g></svg>

<svg width="24" height="24" viewBox="0 0 24 24" fill="none" xmlns="http://www.w3.org/2000/svg">
<path d="M20.0105 8.10891L21.1852 6.18758C21.4732 5.71558 21.3252 5.10091 20.8545 4.81291C20.3825 4.52625 19.7679 4.67291 19.4799 5.14358L18.2705 7.11958C17.3665 6.67825 16.4199 6.33558 15.4385 6.09425L15.8825 3.88758C15.9919 3.34625 15.6399 2.81825 15.0999 2.71025C14.5599 2.60625 14.0305 2.95158 13.9225 3.49291L13.4705 5.73958C12.9852 5.69025 12.4945 5.66358 11.9999 5.66358C11.5052 5.66358 11.0145 5.69025 10.5292 5.73958L10.0772 3.49291C9.96788 2.95158 9.43721 2.60491 8.89988 2.71025C8.35855 2.81958 8.00788 3.34625 8.11721 3.88758L8.56121 6.09425C7.57988 6.33558 6.63321 6.67825 5.72921 7.11958L4.51988 5.14358C4.23321 4.67291 3.61721 4.52625 3.14521 4.81291C2.67455 5.10091 2.52655 5.71691 2.81455 6.18758L3.98921 8.10891C3.19721 8.64491 2.45055 9.26491 1.76521 9.96491C1.37855 10.3582 1.38521 10.9929 1.77988 11.3796C2.17321 11.7662 2.80655 11.7596 3.19455 11.3649C5.53321 8.97958 8.66121 7.66625 12.0012 7.66625C15.3412 7.66625 18.4692 8.97958 20.8079 11.3649C21.0039 11.5649 21.2625 11.6649 21.5225 11.6649C21.7745 11.6649 22.0279 11.5702 22.2225 11.3796C22.6172 10.9929 22.6239 10.3596 22.2372 9.96491C21.5505 9.26491 20.8052 8.64491 20.0132 8.10891H20.0105Z" fill="white"/>
<path d="M11.9999 18.6654C14.5772 18.6654 16.6666 16.576 16.6666 13.9987C16.6666 11.4214 14.5772 9.33203 11.9999 9.33203C9.42259 9.33203 7.33325 11.4214 7.33325 13.9987C7.33325 16.576 9.42259 18.6654 11.9999 18.6654Z" fill="white"/>
</svg>
